packages/icons/assets/Host.svg

<svg xmlns="http://www.w3.org/2000/svg" viewBox="0 0 16 16"><path fill="#414141" d="M6.5809 15.0027H.00100617v-.9973H6.5798c.07488-.2102.19574-.4012.35367-.559.15794-.1578.34906-.2786.55954-.3536v-2.0794H.00003052L.0150311 0H16l-.014 11.0134H8.49305v2.0794c.21069.0748.40202.1955.56014.3534.15812.1578.27912.3488.35404.5592H15.986v.9973H9.40613c-.10329.2916-.29459.5441-.54758.7227-.25299.1786-.55517.2746-.86504.2746-.30986 0-.61204-.096-.86503-.2746-.25299-.1786-.44429-.4311-.54758-.7227zm.91308-.4987c0 .1323.05267.2591.14635.3526.09368.0935.2207.1461.35318.1461.13249 0 .25951-.0526.35319-.1461.09368-.0935.14635-.2203.14635-.3526.00022-.1272-.04833-.2497-.13562-.3424-.08729-.0927-.20669-.1486-.33392-.1562h-.05902c-.1274.0074-.24702.0631-.33453.1559-.0875.0927-.13619.2153-.13598.3427zM1.01605 9.9732H15.0029V5.98392H1.01605V9.9732zm0-4.9866H15.0029V.99732H1.01605V4.9866zM12.9538 8.47722V7.4799h.9991v.99732h-.9991zm-10.98967 0V7.4799h5.99438v.99732H1.96413zm10.98967-4.9866V2.4933h.9991v.99732h-.9991zm-10.98967 0V2.4933h5.99438v.99732H1.96413z"/></svg>

<svg xmlns="http://www.w3.org/2000/svg" viewBox="0 0 16 16"><path fill="#414141" d="M6.58 15H0v-1h6.58a1.5 1.5 0 0 1 .91-.9V11H0L.02 0H16l-.01 11.01h-7.5v2.08a1.5 1.5 0 0 1 .92.92h6.58v1H9.4a1.5 1.5 0 0 1-2.83 0zm.91-.5a.5.5 0 0 0 .86.36.5.5 0 0 0-.33-.85h-.06a.5.5 0 0 0-.47.5zM1.02 9.97H15V5.98H1.02v4zm0-4.98H15v-4H1.02v4zm11.93 3.49v-1h1v1h-1zm-10.99 0v-1h6v1h-6zm11-4.99v-1h1v1h-1zm-11 0v-1h6v1h-6z"/></svg>
